assets/img/preloader-bg-1.svg

<svg width="743" height="643" viewBox="0 0 743 643" fill="none" xmlns="http://www.w3.org/2000/svg">
<path d="M939.103 642.023C1036.59 640.178 1070.26 495.084 1081.33 447.311C1089.92 410.466 1109.47 319.734 1064.94 205.46C1006.04 54.0381 907.866 49.6959 833.653 -111.69C774.833 -239.622 807.377 -300.113 733.376 -366.496C684.142 -410.688 606.909 -440.343 561.936 -420.943C482.881 -386.781 530.63 -212.608 538.132 -185.531C572.214 -61.3265 651.275 -64.0297 614.924 32.8036C593.397 83.8937 495.568 97.6237 420.081 63.4484C335.893 25.3228 335.794 -46.7896 241.605 -103.957C163.489 -151.355 51.8879 -169.491 15.1784 -127.774C-35.8935 -69.7459 50.0841 113.219 181.705 218.06C317.956 326.573 394.745 265.256 583.021 371.63C791.414 489.397 837.979 643.916 939.103 642.023Z" stroke="url(#paint0_linear_6713_784)" stroke-width="0.5" stroke-miterlimit="10"/>
<defs>
<linearGradient id="paint0_linear_6713_784" x1="1082.58" y1="715.424" x2="1266.16" y2="-156.975" gradientUnits="userSpaceOnUse">
<stop stop-color="#222222" stop-opacity="0.5"/>
<stop offset="1" stop-color="#584911" stop-opacity="0"/>
</linearGradient>
</defs>
</svg>

<?xml version="1.0" encoding="utf-8"?>
<!-- Generator: Adobe Illustrator 30.1.0, SVG Export Plug-In . SVG Version: 9.03 Build 0)  -->
<svg version="1.1" id="Layer_1" xmlns="http://www.w3.org/2000/svg" xmlns:xlink="http://www.w3.org/1999/xlink" x="0px" y="0px"
	 viewBox="0 0 743 643" enable-background="new 0 0 743 643" xml:space="preserve">
<linearGradient id="SVGID_1_" gradientUnits="userSpaceOnUse" x1="455.5875" y1="57.5542" x2="639.1676" y2="929.9532" gradientTransform="matrix(1 0 0 -1 0 641.0394)">
	<stop  offset="0" style="stop-color:#222222;stop-opacity:0.5"/>
	<stop  offset="1" style="stop-color:#584911;stop-opacity:0"/>
</linearGradient>
<path fill="none" stroke="url(#SVGID_1_)" stroke-width="0.5" stroke-miterlimit="10" d="M939.1,642.02
	c97.49-1.85,131.16-146.94,142.23-194.71c8.59-36.85,28.14-127.58-16.39-241.85C1006.04,54.04,907.87,49.7,833.65-111.69
	c-58.82-127.93-26.28-188.42-100.28-254.81c-49.23-44.19-126.47-73.85-171.44-54.45c-79.05,34.16-31.31,208.33-23.8,235.41
	c34.08,124.2,113.14,121.5,76.79,218.33C593.4,83.89,495.57,97.62,420.08,63.45C335.89,25.32,335.79-46.79,241.6-103.96
	c-78.12-47.4-189.72-65.53-226.43-23.82c-51.07,58.03,34.91,240.99,166.53,345.83c136.25,108.51,213.04,47.2,401.32,153.57
	C791.41,489.4,837.98,643.92,939.1,642.02z"/>
</svg>
